X: 206
%%etbk:tnset id:148,pos:2,rep:3x,ant:
%%etbk:wsite http://thesession.org/tunes/281
%%etbk:skill ?
%%etbk:pldat 2013-10-29T16:21,2013-10-18T15:25,2013-10-15T18:32,2013-10-13T16:23,2013-10-08T16:04,2013-10-04T16:46,2013-05-23T18:34,2013-05-14T19:14,2013-05-09T15:44,2013-05-07T18:40,2013-05-02T17:57,2013-05-01T17:44
T: Master Crowley's
Z: Piano Box Version by Martin Fleischmann
H: Created 2013-02-19 /  Last Modified 2013-05-23
R: reel
M: 4/4
L: 1/8
K: Emin
|: "em"!1!B,!3!E!2!E!2!E !1!B,!3!E!5!GE | "bm"!4!F!2!D!1!A,D !4!F!2!D!1!A,!2!D | "em"!1!B,!3!E!5!G!3!E !1!C!3!E!5!G!1!E | "bm"!2!F!3!A!5!dA "em"!2!F!1!E!3!E!2!D | 
"em"!1!B,2!3!E{F}E !1!B,!3!E!5!GE | "bm"!4!F!2!D!1!A,D !4!F!2!D!1!A,!2!D | "em"!1!B,!3!E!5!G!3!E !1!C!3!E!5!G!1!E  |1 "bm"!2!F!3!A!5!dA "em"!2!F!1!E!3!E!2!D :|2 "bm"!2!F!3!A!5!dA "em"!2!F!1!EE2 :|
|: "em"!2!e!5!b!4!^ab !2!f!3!g!1!e!3!g | "bm"!2!f!1!d!4!ad !5!bd!4!a!1!d | "em"!2!e!5!b!4!^ab !2!f!3!g!1!e!3!g  | "bm"!1!d3!2!e "em"!1!B!2!ee2 |
"em"!2!e!5!b!4!^ab !2!f!3!g!1!e!3!g | "bm"!2!f!1!d!4!ad !5!bd!4!a!1!d | "em"{g}!2!e!1!d!2!B!1!A !2!B2!4!dB |2 "bm"!1!A3!4!d "em"!1!B!2!ee2:|2 "bm"!1!A!2!F!1!D!2!F "em"!2!F!1!E!3!E!2!D|
